!!!OTL: Schoen Adelheid.
!!!OTL-incipit: Es wolt ain maydlein wasser holl
!!!ARE: Europa, Mitteleuropa, Deutschland
!!!YOR: 4, S. 66
!!    1530 Handschrift aus Muenchen (ca.)
!!!SCT: Q1074B
!!!YEM: Copyright 1995, estate of Helmut Schaffrath.
**kern	**text
*ICvox	*
!! Irregular meter.
*MX	*
*k[f#]	*
*G:	*
!LO:TX:a:t=Die Winterroſen, um 1530	!
{4g	(Es
=1	=1
4g	wolt
4g	ain
4a	maydlein
4a	.
=2	=2
4b	waf-
4b	-ſer
4g}	holl
{4g	bey
!*M6/4	!
=3	=3
(4cc	ai-
4b)	.
4a	-nem
2b	kue-
4a	-len
=4	=4
(8gL	prun-
8f#J	.
4g)	.
2a;	-nen;
4r}	.
{4a	ſy
=5	=5
!*M4/4	!
2cc	hett
4cc	ain
2b	ſchneeweyß
4b	.
=7	=7
4a	hemet
4a	.
(4.g	an
8a	.
=8	=8
4.b	.
8a	.
4g	.
8f#L	.
8eJ	.
=9	=9
2f#)}	.
{2d	dardurch
=10	=10
!*M6/4	!
4g	.
4g	ſchin
2b	yr
(4a	die
4g)	.
=11	=11
2a	ſunnen.)
4g;}	.
==	==
!!!AGN: ???
!! Melodievergleich zu Q0074, anderes Lied.
!!!ONB: ESAC (Essen Associative Code) Database: BALLADE
!!!AMT: irregular
!!!AIN: vox
!!!EED: Helmut Schaffrath
!!!EEV: 1.0
!!!source: Deutsche Volkslieder mit ihren Melodien. Herausgegeben vom Deutschen Volksliedarchiv. Vierter Band. Berlin 1959.
!!!page: 66
!!!ENC: Anna Maria Matuszewska
!!!EEV: 2025/02/27
*-	*-
